img/common/btn-arrow-sp.svg

<svg fill="none" height="16" viewBox="0 0 10 16" width="10" xmlns="http://www.w3.org/2000/svg" xmlns:xlink="http://www.w3.org/1999/xlink"><clipPath id="a"><path d="m0 0h15v9h-15z" transform="matrix(0 1 -1 0 9.74316 .5)"/></clipPath><g clip-path="url(#a)"><path d="m1.94697 1.11914c-.12652 0-.25599.04699-.35309.13822-.19419.18244-.19419.48099 0 .66344l6.64656 6.24464-6.54946 6.15346c-.19419.1824-.19419.481 0 .6634.19419.1825.51195.1825.70614 0l6.90548-6.48514c.19419-.18244.19419-.48099 0-.66344l-6.99963-6.57636c-.10004-.09399-.22654-.13822-.356-.13822z" fill="#fff"/></g></svg>

<svg width="10" height="16" viewBox="0 0 10 16" fill="none" xmlns="http://www.w3.org/2000/svg">
<g clip-path="url(#clip0_1_2244)">
<path d="M1.94697 1.11914C1.82045 1.11914 1.69098 1.16613 1.59388 1.25736C1.39969 1.4398 1.39969 1.73835 1.59388 1.9208L8.24044 8.16544L1.69098 14.3189C1.49679 14.5013 1.49679 14.7999 1.69098 14.9823C1.88517 15.1648 2.20293 15.1648 2.39712 14.9823L9.3026 8.49716C9.49679 8.31472 9.49679 8.01617 9.3026 7.83372L2.30297 1.25736C2.20293 1.16337 2.07643 1.11914 1.94697 1.11914Z" fill="white"/>
</g>
<defs>
<clipPath id="clip0_1_2244">
<rect width="15" height="9" fill="white" transform="translate(9.74316 0.5) rotate(90)"/>
</clipPath>
</defs>
</svg>
